assets/images/AWS/Networking/VPC/Networking_AmazonVPC_Router.svg

<?xml version="1.0" encoding="UTF-8" standalone="no"?>
<!-- Generator: Adobe Illustrator 16.0.0, SVG Export Plug-In . SVG Version: 6.00 Build 0)  -->

<svg
   xmlns:dc="http://purl.org/dc/elements/1.1/"
   xmlns:cc="http://creativecommons.org/ns#"
   xmlns:rdf="http://www.w3.org/1999/02/22-rdf-syntax-ns#"
   xmlns:svg="http://www.w3.org/2000/svg"
   xmlns="http://www.w3.org/2000/svg"
   xmlns:sodipodi="http://sodipodi.sourceforge.net/DTD/sodipodi-0.dtd"
   xmlns:inkscape="http://www.inkscape.org/namespaces/inkscape"
   version="1.2"
   x="0px"
   y="0px"
   width="100px"
   height="100px"
   viewBox="0 0 100 100"
   xml:space="preserve"
   id="svg2"
   inkscape:version="0.91 r13725"
   sodipodi:docname="Networking_AmazonVPC_Router.svg"><metadata
     id="metadata75"><rdf:RDF><cc:Work
         rdf:about=""><dc:format>image/svg+xml</dc:format><dc:type
           rdf:resource="http://purl.org/dc/dcmitype/StillImage" /></cc:Work></rdf:RDF></metadata><defs
     id="defs73" /><sodipodi:namedview
     pagecolor="#ffffff"
     bordercolor="#666666"
     borderopacity="1"
     objecttolerance="10"
     gridtolerance="10"
     guidetolerance="10"
     inkscape:pageopacity="0"
     inkscape:pageshadow="2"
     inkscape:window-width="1280"
     inkscape:window-height="985"
     id="namedview71"
     showgrid="false"
     inkscape:zoom="7.4579687"
     inkscape:cx="50.26817"
     inkscape:cy="50"
     inkscape:window-x="0"
     inkscape:window-y="0"
     inkscape:window-maximized="1"
     inkscape:current-layer="svg2" /><g
     id="Layer_3"
     transform="matrix(1.7538936,0,0,1.7538936,-16.832937,-59.186682)" /><g
     id="Layer_1"
     transform="matrix(1.7538936,0,0,1.7538936,-37.694679,-37.69468)"><g
       id="g6"><g
         id="g8"><polygon
           points="44.869,30.213 48.158,21.492 48.158,24.775 44.869,33.492 "
           id="polygon10"
           style="fill:#9d5025" /></g><g
         id="g12"><rect
           x="22.327999"
           y="45.693001"
           width="13.742"
           height="3.2809999"
           id="rect14"
           style="fill:#9d5025" /></g><g
         id="g16"><polygon
           points="36.07,42.514 47.119,49.314 47.119,52.598 36.07,45.795 "
           id="polygon18"
           style="fill:#9d5025" /></g><g
         id="g20"><rect
           x="45.004002"
           y="67.017998"
           width="2.576"
           height="3.283"
           id="rect22"
           style="fill:#9d5025" /></g><g
         id="g24"><path
           d="m 48.158,21.492 -3.289,8.721 2.711,0 0,36.805 -2.576,0 3.086,8.207 C 34.692,74.584 23.832,65.205 22.432,52.108 l 13.638,0 0,2.336 11.049,-5.129 -11.049,-6.801 0,3.18 -13.742,0 c 0.838,-12.335 12.43,-23.811 25.83,-24.202 z"
           id="path26"
           inkscape:connector-curvature="0"
           style="fill:#f58536" /></g><g
         id="g28"><path
           d="m 48.09,75.225 0,3.283 C 34.691,77.867 23.832,68.49 22.432,55.391 l 0,-3.283 c 1.4,13.097 12.259,22.476 25.658,23.117"
           id="path30"
           inkscape:connector-curvature="0"
           style="fill:#9d5025" /></g><path
         d="m 48.09,75.225 0,3.283 C 34.691,77.867 23.832,68.49 22.432,55.391 l 0,-3.283 c 1.4,13.097 12.259,22.476 25.658,23.117 z"
         id="path32"
         inkscape:connector-curvature="0"
         style="fill:#9d5025" /><g
         id="g34"><polygon
           points="51.859,21.512 55.15,30.213 55.15,33.492 51.859,24.795 "
           id="polygon36"
           style="fill:#9d5025" /></g><g
         id="g38"><rect
           x="63.861"
           y="45.542999"
           width="13.811"
           height="3.2809999"
           id="rect40"
           style="fill:#9d5025" /></g><g
         id="g42"><polygon
           points="63.709,42.514 63.861,45.543 63.861,48.824 63.709,45.795 "
           id="polygon44"
           style="fill:#866929" /></g><g
         id="g46"><polygon
           points="52.66,49.314 63.709,42.514 63.709,45.795 52.66,52.598 "
           id="polygon48"
           style="fill:#9d5025" /></g><g
         id="g50"><rect
           x="52.419998"
           y="67.017998"
           width="2.592"
           height="3.283"
           id="rect52"
           style="fill:#9d5025" /></g><g
         id="g54"><path
           d="m 77.416,51.684 0,3.285 c -0.035,0.322 -0.072,0.643 -0.121,0.961 l 0,-3.283 c 0.049,-0.319 0.086,-0.639 0.121,-0.963"
           id="path56"
           inkscape:connector-curvature="0"
           style="fill:#9d5025" /><path
           d="m 77.295,52.646 0,3.283 c -0.207,1.465 -0.541,2.887 -0.98,4.256 l 0,-3.283 c 0.439,-1.369 0.773,-2.791 0.98,-4.256"
           id="path58"
           inkscape:connector-curvature="0"
           style="fill:#9d5025" /><path
           d="m 76.314,56.902 0,3.283 c -0.514,1.598 -1.176,3.123 -1.973,4.566 l 0,-3.285 c 0.798,-1.439 1.46,-2.966 1.973,-4.564"
           id="path60"
           inkscape:connector-curvature="0"
           style="fill:#9d5025" /><path
           d="m 74.342,61.467 0,3.285 C 69.98,72.65 61.625,77.979 51.908,78.508 l 0,-3.283 C 61.625,74.693 69.98,69.369 74.342,61.467"
           id="path62"
           inkscape:connector-curvature="0"
           style="fill:#9d5025" /></g><path
         d="m 77.416,51.684 0,3.285 C 76.018,68.016 65.244,77.783 51.908,78.508 l 0,-3.283 C 65.244,74.5 76.018,64.732 77.416,51.684 Z"
         id="path64"
         inkscape:connector-curvature="0"
         style="fill:#9d5025" /><g
         id="g66"><path
           d="m 51.859,21.512 c 13.332,0.947 25.658,11.135 25.812,24.031 l -13.81,0 -0.152,-3.029 -11.049,6.8 11.049,5.129 0,-2.76 13.707,0 C 76.018,64.732 65.244,74.5 51.908,75.225 l 3.104,-8.207 -2.592,0 0,-36.805 2.73,0 -3.291,-8.701 z"
           id="path68"
           inkscape:connector-curvature="0"
           style="fill:#f58536" /></g></g></g><g
     id="nyt_x5F_exporter_x5F_info"
     display="none" /></svg>

<?xml version="1.0" encoding="utf-8"?>
<!-- Generator: Adobe Illustrator 16.0.0, SVG Export Plug-In . SVG Version: 6.00 Build 0)  -->
<svg version="1.2" baseProfile="tiny" xmlns="http://www.w3.org/2000/svg" xmlns:xlink="http://www.w3.org/1999/xlink" x="0px"
	 y="0px" width="100px" height="100px" viewBox="0 0 100 100" xml:space="preserve">
<g id="Layer_3">
</g>
<g id="Layer_1">
	<g>
		<g>
			<polygon fill="#9D5025" points="48.158,21.492 48.158,24.775 44.869,33.492 44.869,30.213 			"/>
		</g>
		<g>
			<rect x="22.328" y="45.693" fill="#9D5025" width="13.742" height="3.281"/>
		</g>
		<g>
			<polygon fill="#9D5025" points="47.119,49.314 47.119,52.598 36.07,45.795 36.07,42.514 			"/>
		</g>
		<g>
			<rect x="45.004" y="67.018" fill="#9D5025" width="2.576" height="3.283"/>
		</g>
		<g>
			<path fill="#F58536" d="M48.158,21.492l-3.289,8.721h2.711v36.805h-2.576l3.086,8.207c-13.398-0.641-24.258-10.02-25.658-23.117
				H36.07v2.336l11.049-5.129L36.07,42.514v3.18H22.328C23.166,33.359,34.758,21.883,48.158,21.492z"/>
		</g>
		<g>
			<path fill="#9D5025" d="M48.09,75.225v3.283C34.691,77.867,23.832,68.49,22.432,55.391v-3.283
				C23.832,65.205,34.691,74.584,48.09,75.225"/>
		</g>
		<path fill="#9D5025" d="M48.09,75.225v3.283C34.691,77.867,23.832,68.49,22.432,55.391v-3.283
			C23.832,65.205,34.691,74.584,48.09,75.225z"/>
		<g>
			<polygon fill="#9D5025" points="55.15,30.213 55.15,33.492 51.859,24.795 51.859,21.512 			"/>
		</g>
		<g>
			<rect x="63.861" y="45.543" fill="#9D5025" width="13.811" height="3.281"/>
		</g>
		<g>
			<polygon fill="#866929" points="63.861,45.543 63.861,48.824 63.709,45.795 63.709,42.514 			"/>
		</g>
		<g>
			<polygon fill="#9D5025" points="63.709,42.514 63.709,45.795 52.66,52.598 52.66,49.314 			"/>
		</g>
		<g>
			<rect x="52.42" y="67.018" fill="#9D5025" width="2.592" height="3.283"/>
		</g>
		<g>
			<path fill="#9D5025" d="M77.416,51.684v3.285c-0.035,0.322-0.072,0.643-0.121,0.961v-3.283
				C77.344,52.328,77.381,52.008,77.416,51.684"/>
			<path fill="#9D5025" d="M77.295,52.646v3.283c-0.207,1.465-0.541,2.887-0.98,4.256v-3.283
				C76.754,55.533,77.088,54.111,77.295,52.646"/>
			<path fill="#9D5025" d="M76.314,56.902v3.283c-0.514,1.598-1.176,3.123-1.973,4.566v-3.285
				C75.139,60.027,75.801,58.5,76.314,56.902"/>
			<path fill="#9D5025" d="M74.342,61.467v3.285C69.98,72.65,61.625,77.979,51.908,78.508v-3.283
				C61.625,74.693,69.98,69.369,74.342,61.467"/>
		</g>
		<path fill="#9D5025" d="M77.416,51.684v3.285c-1.398,13.047-12.172,22.814-25.508,23.539v-3.283
			C65.244,74.5,76.018,64.732,77.416,51.684z"/>
		<g>
			<path fill="#F58536" d="M51.859,21.512c13.332,0.947,25.658,11.135,25.812,24.031H63.861l-0.152-3.029L52.66,49.314l11.049,5.129
				v-2.76h13.707C76.018,64.732,65.244,74.5,51.908,75.225l3.104-8.207H52.42V30.213h2.73L51.859,21.512z"/>
		</g>
	</g>
</g>
<g id="nyt_x5F_exporter_x5F_info" display="none">
</g>
</svg>
